X: 8818
T: Cuil Aodha, The
R: jig
M: 6/8
K: Gmajor
|:gfd cAd|GAG B2c|d2B cAG|FDF cBA|
G3 GFG|A3 fga|g/f/ed cAd|GAG GBd:|
|:d2g gfg|ade fga|gfd cAd|cAG FGA|
dgg gfg|ade fga|gfd cAd|GAG G2d:|

